!!!COM: Schubert, Franz
!!!CNT: Deutscher
!!!TXO: Deutsch
!!!OTL: "Der stuermische Morgen"
!!!OPR: Winterreise
!!!LYR: Mu2ller, Wilhelm
!!!OPS: Opus 89
!!!ONM: No. 18
!!!ODT: 1827/
!!NB: Vocal melody only encoded.
**kern	**silbe
*clefG2	*
*k[b-]	*
*M4/4	*
*MM[geschwind]	*
=3	=3
2r	.
4r	.
8r	.
{8d	{Wie
=4	=4
8.d	hat
16e	der
16d	Sturm
16e	|
16f	zer-
16g	|
4a	-ris-
8d	-sen
8a	des
=5	=5
8.a	Him-
16dd	-mels
8cc#	grau-
8dd	-es
4.ee}	Kleid!}
{8a	{die
=6	=6
8.b-	Wol-
16g	-ken-
16e	-fe-
16c#	|
16e	-tzen
16g	|
4b-	flat-
8c#	-tern
8a	um-
=7	=7
8d	-her
8a	in
8e	mat-
8a	-tem
8f#	Streit,
8ee-	um-
8dd	-her
8b-	in
=8	=8
4g#	mat-
4a	-tem
4d}	Streit.}
4r	.
=9	=9
2r	.
4r	.
8r	.
{8b-	{Und
=10	=10
8.b-	ro-
16b-	-the
16b-	Feu-
16cc	|
16dd	-er-
16cc	|
4b-	-flam-
8f	-man
16b-	zieh'n
16a	|
=11	=11
8g	zwi-
8a	-schen
8b-	ih-
16dd	-nen
16cc	|
4b-}	hin,}
8r	.
{8b-	{das
=12	=12
8.b-	nenn'
16b-	ich
16b-	ei-
16cc	|
16dd	-nen
16cc	|
4b-	Mor-
8f	-gen
8b-	so
=13	=13
8dd	recht
8ee-	nach
8cc	mei-
8dd	-nem
4b-}	Sinn!}
8r	.
{8b-	{Mein
=14	=14
8.b-	Herz
16g	sieht
16e	an
16c#	|
16e	dem
16g	|
4b-	Him-
8c#	-mel
8a	ge-
=15	=15
8d	-malt
8a	sein
8e	eig-
8a	-nes
4f#}	Bild,}
8r	.
{8ee-	{es
=16	=16
8.ee-	ist
16ee-	nichts
8ee-	als
8ee-	der
4ee-	Win-
8e-	-ter,
8dd	es
=17	=17
8.cc#	ist
16cc#	nichts
8cc#	als
8cc#	der
4cc#	Win-
8c#	-ter,
8cc#	der
=18	=18
8dd	Win-
8b-	-ter
8g#	kalt
8a	und
4d}	wild!}
4r	.
*-	*-
